img/system/2.svg

<svg width="44" height="54" viewBox="0 0 44 54" fill="none" xmlns="http://www.w3.org/2000/svg">
<path d="M29.8 16.6992C29.8 22.7792 25.92 27.6992 21.13 27.6992C16.34 27.6992 12.47 22.7592 12.47 16.6992C12.47 10.6392 16.35 5.69922 21.13 5.69922C22.8232 5.71486 24.459 6.31541 25.76 7.39917C26.0276 7.61299 26.2814 7.84363 26.52 8.08936C28.6894 10.4249 29.8656 13.5123 29.8 16.6992Z" stroke="#666666" stroke-width="2.5" stroke-miterlimit="10"/>
<path d="M17.57 27.0605C17.65 29.7505 17.28 34.5706 17.28 34.5706C17.28 34.5706 5.84997 38.4004 4.21997 39.1504C2.58997 39.9004 1.35999 42.1504 1.35999 47.6904" stroke="#666666" stroke-width="2.5" stroke-miterlimit="10"/>
<path d="M26.5 25.5996C26.42 28.2796 26.79 34.5996 26.79 34.5996C26.79 34.5996 38.2299 38.4294 39.8499 39.1794C41.4699 39.9294 42.69 44.4794 42.69 47.6794" stroke="#666666" stroke-width="2.5" stroke-miterlimit="10"/>
<path d="M17.28 34.5703L22.2 49.8003L26.79 34.5703" stroke="#666666" stroke-width="2.5" stroke-miterlimit="10"/>
<path d="M8.78002 32.9299C8.78002 32.9299 8.67996 16.63 9.21996 12.75C9.75996 8.87 12.9 2 20.71 2C24.28 2 33.26 3.70997 33.26 14.72C33.26 25.73 33.26 32.3201 33.26 32.3201" stroke="#666666" stroke-width="2.5" stroke-miterlimit="10"/>
</svg>

<svg width="44" height="54" fill="none" xmlns="http://www.w3.org/2000/svg"><path d="M29.8 16.7c0 6.08-3.88 11-8.67 11s-8.66-4.94-8.66-11 3.88-11 8.66-11a7.34 7.34 0 014.63 1.7c.268.213.521.444.76.69a12.28 12.28 0 013.28 8.61zM17.57 27.06c.08 2.69-.29 7.51-.29 7.51S5.85 38.4 4.22 39.15c-1.63.75-2.86 3-2.86 8.54" stroke="#666" stroke-width="2.5" stroke-miterlimit="10"/><path d="M26.5 25.6c-.08 2.68.29 9 .29 9s11.44 3.83 13.06 4.58c1.62.75 2.84 5.3 2.84 8.5" stroke="#666" stroke-width="2.5" stroke-miterlimit="10"/><path d="M17.28 34.57L22.2 49.8l4.59-15.23M8.78 32.93s-.1-16.3.44-20.18C9.76 8.87 12.9 2 20.71 2c3.57 0 12.55 1.71 12.55 12.72v17.6" stroke="#666" stroke-width="2.5" stroke-miterlimit="10"/></svg>
